X:761
T:Miss McCloud's Reel
S:Edinburgh sessions
Z:Nigel Gatherer
M:4/4
L:1/8
K:G
G2 BG dGBG     | B2 BA BcBA  | G2 BG dGBG  | DEFG AcBA |
G2 BG dGBG     | B2 BA Bc d2 | efed  Bdef  | (3gfe dc BGAF ||
G2 gf ef (3gfe | dBBA  BcBA  | G2 gf ef g2 | eaag  fdef    |
g2 gf ef (3gfe | dBBA  Bc d2 | efed  Bdef  | (3gfe dc BGAF |]
